X: 38333
T: Stack Of Wheat, The
R: hornpipe
M: 4/4
K: Gmajor
|:BA|GEDE GABG|(3ABA GA Bdef|gedB GABG|dBAG E2BA|
GEDE GABG|(3ABA GA Bdef|gedB GABG|AGEF G2:|
Bd|edBd edgd|edBd e2 (3def|gedB GABG|dBAG E2 Bd|
edBd edgd|edBd e2 (3def|gedB GABG|AGEF G2 Bd|
edBd edgd|edBd e2 (3def|gedB GABG|dBAG E2 BA|
GEDE GABG|(3ABA GA Bdef|gedB GABG|AGEF G2||

